!!!COA:	Josquin des Prez
!!!CDT:	~1450-1521/08/27
!!!OPR:	Missa Ad fugam
!!!ONM:	2
!!!OTL:	Gloria
!!!AGN:	Mass; Gloria
!!!SCT:	NJE 12.1
!!!SCA:	New Josquin Edition 12.1
!!!voices:	4
!!!voices-OPR:	4
**kern	**kern	**kern	**kern
*staff4	*staff3	*staff2	*staff1
*Ivox	*Ivox	*Ivox	*Ivox
*I"Bassus	*I"Tenor	*I"Altus	*I"Superius
*I'B	*I'T	*I'A	*I'S
*>[A,B]	*>[A,B]	*>[A,B]	*>[A,B]
*>A	*>A	*>A	*>A
*clefF4	*clefGv2	*clefGv2	*clefG2
*k[b-]	*k[b-]	*k[b-]	*k[]
*M3/1	*M3/1	*M3/1	*M3/1
*met(O)	*met(O)	*met(O)	*met(O)
=1-	=1-	=1-	=1-
!	!LO:TX:X=-40:Z=8:t=Canon&colon; Sine ipso factum est nihil	!	!LO:TX:X=-40:Z=8:t=[Canon at the lower fifth]
0G	0.r	1.G	0g
.	.	2A/	.
1E-i	.	2.B-\	1g
.	.	4c\	.
=2	=2	=2	=2
1.F	0c	0A	2a/
.	.	.	1a
2G\	.	.	4g/
.	.	.	4f/
1A	1c	2r	1e
.	.	2A/	.
=3	=3	=3	=3
2r	2d\	2.B-\	1d
1D	1d	.	.
.	.	4A/	.
.	.	2F/	1r
1G	4c\	2G/	.
.	4B-\	.	.
.	1A	1D	1a
2F#i\	.	.	.
=4	=4	=4	=4
1G	1G	2r	1b-i
.	.	1d	.
2D\	1r	.	2a/
1F	.	2c\	1a
.	1d	2A/	.
2E-i\	.	2B-\	2g/
=5	=5	=5	=5
1C	1e-	3c\V	1g
.	.	3G/	.
.	.	3A/Z	.
0BB-	2d\	0B-	1r
.	1d	.	.
.	.	.	2f/
.	2c\	.	2g/
=6	=6	=6	=6
0F	1c	2.A/	0a
.	.	4B-\	.
.	1r	2c\	.
.	.	2F/	.
1E-i	2B-\	1G	1g
.	2c\	.	.
=7	=7	=7	=7
0D	0d	0A	2f/
.	.	.	2.a/
.	.	.	4g/
.	.	.	2f/
1A	1c	2r	1e
.	.	2c\	.
=8	=8	=8	=8
1B-	2B-\	2d\	2d/
.	2.d\	2G/	2.b-i\
1G	.	2.B-\	.
.	4c\	.	4a/
.	2B-\	.	1g
.	.	4c\	.
1D	1A	1d	.
.	.	.	2f#i/
=9	=9	=9	=9
2E-i\	2G/	2B-\	0g
2C/	2.e-i\	2c\	.
2.E-i\	.	2G/	.
.	4d\	.	.
.	1c	2c\	.
4F\	.	.	.
1D	.	2d\	1r
.	2Bni\	2f\	.
=10	=10	=10	=10
1C	0c	2e\	0.r
.	.	2.g\	.
1r	.	.	.
.	.	4f\	.
.	.	1e-i	.
1c	1r	.	.
.	.	4d\	.
.	.	4c\	.
=11	=11	=11	=11
1d	0.r	1B-	0.r
2B-\	.	1r	.
2G\	.	.	.
1A	.	1c	.
=12	=12	=12	=12
1D	0.r	1d	0.r
1r	.	2B-\	.
.	.	2G/	.
1c	.	1A	.
=13	=13	=13	=13
1d	0.r	2r	0.r
.	.	1D	.
2B-\	.	.	.
2G\	.	1d	.
1A	.	.	.
.	.	2c\	.
=14	=14	=14	=14
0G	0.r	2e-i\	0.r
.	.	1d	.
.	.	4c\	.
.	.	4B-\	.
1F	.	1A	.
=15	=15	=15	=15
2.B-\	0.r	2G/	0.r
.	.	1d	.
4c\	.	.	.
2d\	.	.	.
1d	.	2f\	.
.	.	1e	.
2c\	.	.	.
=16	=16	=16	=16
2B-\	0.r	[0.d	0.r
4A\	.	.	.
4G\	.	.	.
2F\	.	.	.
2.G\	.	.	.
4F\	.	.	.
[2B-\	.	.	.
=17	=17	=17	=17
4B-\]	0.r	0d]	0.r
4A\	.	.	.
2.G\	.	.	.
4F\	.	.	.
2D\	.	.	.
2E\	.	1c	.
2F\	.	.	.
=18	=18	=18	=18
2BB-/	0.r	2.d\	0.r
1F	.	.	.
.	.	4c\	.
.	.	2A/	.
2G\	.	2d\	.
2A\	.	2c\	.
2D\	.	2d\	.
=19	=19	=19	=19
2E\	0.r	2G/	0.r
2F\	.	1d	.
2G\	.	.	.
2A\	.	2c\	.
2B-\	.	2d\	.
[2G\	.	2B-\	.
=20	=20	=20	=20
2G\]	0.r	1A	0.r
2F#i\	.	.	.
1G	.	1G	.
1G	.	1G	.
=21	=21	=21	=21
0.r	0.r	0c	0g
.	.	1r	2.a/
.	.	.	4b\
=22	=22	=22	=22
0.r	0c	0.r	1.cc
.	.	.	2a/
.	2.d\	.	2.b\
.	4e\	.	4cc\
=23	=23	=23	=23
1r	1.f	0.r	2.a/
.	.	.	4b\
1r	.	.	2cc\
.	2d\	.	1dd
1A	2.e\	.	.
.	.	.	2cc#i\
.	4f\	.	.
=24	=24	=24	=24
2B-\	2.d\	1r	1dd
1B-	.	.	.
.	4e\	.	.
.	2f\	1r	1r
2G\	1g	.	.
1A	.	1c	1r
.	2f#i\	.	.
=25	=25	=25	=25
2G\	1g	2d\	0.r
1c	.	1e	.
.	1r	.	.
2B-\	.	2d\	.
2G\	1r	2.g\	.
[2B-\	.	.	.
.	.	4f\	.
=26	=26	=26	=26
4B-\]	0.r	1f	0.r
4A\	.	.	.
1A	.	.	.
.	.	2e\	.
2F\	.	2.d\	.
1E	.	.	.
.	.	4c\	.
.	.	2c\	.
=27	=27	=27	=27
0.D	0.r	2B-\	0f
.	.	2.A/	.
.	.	4G/	.
.	.	2B-\	.
.	.	1A	1f
=28	=28	=28	=28
1r	0B-	0G	0g
0G	.	.	.
.	1B-	2d\	1g
.	.	2e\	.
=29	=29	=29	=29
1.F	0c	0f	0a
2G\	.	.	.
1A	1c	1F	1cc
=30	=30	=30	=30
0G	0d	2B-\	2b-i\
.	.	2G/	1dd
.	.	2.B-\	.
.	.	.	4cc\
.	.	4c\	4b-i\
1D	1f	1d	1a
=31	=31	=31	=31
1E	2e\	1G	1g
.	1g	.	.
1C	.	1c	2r
.	4f\	.	2g/
.	4e\	.	.
2F\	1d	1r	2a/
2G\	.	.	2b\
=32	=32	=32	=32
1A	1c	0.r	1cc
2G\	2r	.	2b\
2F\	2c\	.	2.a/
2D\	2d\	.	.
.	.	.	4f/
2C/	2e\	.	2g/
=33	=33	=33	=33
1F	1f	1r	1a
2C/	2e\	1r	2g/
2D\	2.d\	.	2f/
1A	.	2r	1e
.	4B-\	.	.
.	2c\	2e\	.
=34	=34	=34	=34
2.D\	1d	2f\	1d
.	.	1a	.
4E\	.	.	.
2F\	2c\	.	1r
2G\	2B-\	1g	.
1D	1A	.	1r
.	.	2f#i\	.
=35	=35	=35	=35
0.E	1G	0g	0g
.	1r	.	.
.	1r	1r	1g
=36	=36	=36	=36
0C	0c	0e	1g
.	.	.	1.cc
1r	1c	1A	.
.	.	.	2a/
=37	=37	=37	=37
0F	1c	0A	1a
.	1.f	.	1r
1D	.	[1d	1r
.	2d\	.	.
=38	=38	=38	=38
1D	1d	2d\]	1dd
.	.	2c\	.
1.G	1r	2.B-\	2dd\
.	.	.	2dd\
.	.	4G/	.
.	1r	1G	2.b\
2E\	.	.	.
.	.	.	4g/
=39	=39	=39	=39
2.E\	1g	1r	1g
4C/	.	.	.
1C	2g\	1c	1r
.	2g\	.	.
1r	2.e\	2c\	1g
.	.	[2c\	.
.	4c\	.	.
=40	=40	=40	=40
1F	1c	2c\]	1a
.	.	2A/	.
1G	1r	2B-\	2g/
.	.	2d\	2f/
1A	1c	2c\	1e
.	.	[2A/	.
=41	=41	=41	=41
1D	1d	2A/]	1d
.	.	2B-\	.
1r	2c\	4A/	2r
.	.	4G/	.
.	2B-\	1G	2d/
1c	1A	.	2e/
.	.	2F/	2f/
=42	=42	=42	=42
1.B-	1G	2B-\	1g
.	.	2G/	.
.	2r	2.B-\	1d
4A\	2G/	.	.
4G\	.	4c\	.
2F\	2A/	1d	2r
2G\	2B-\	.	2d/
=43	=43	=43	=43
1C	1c	2r	2.e/
.	.	2c\	.
.	.	.	4f/
2r	1G	2d\	2g/
1.G	.	2B-\	2d/
.	2r	2.d\	2g/
.	2G/	.	2b\
.	.	4e\	.
=44	=44	=44	=44
2.F\	2.A/	1f	1a
4E\	4B-\	.	.
0C	2c\	2.e\	1g
.	2G/	.	.
.	.	4f\	.
.	2c\	1g	2r
.	2e\	.	2g/
=45	=45	=45	=45
2.F\	1d	2r	2.a/
.	.	2g\	.
4G\	.	.	4b\
0A	1c	2e\	1.cc
.	.	2c\	.
.	2r	2.e\	.
.	2c\	.	2a/
.	.	4f\	.
=46	=46	=46	=46
2.G\	2.d\	1g	1b
4F\	4e\	.	.
0D	1.f	[0a	2r
.	.	.	1a
.	2d\	.	[2dd\
=47	=47	=47	=47
1A	1e	1a]	2dd\]
.	.	.	2cc\
1B-	2r	1r	1dd
.	1d	.	.
1G	.	1r	2b\
.	[2g\	.	2g/
=48	=48	=48	=48
1D	2g\]	2r	1a
.	2f#i\	1d	.
2G\	[0gl	.	[0gl
1c	.	2.e-i\	.
.	.	4c\	.
2B-\	.	2d\	.
=49	=49	=49	=49
1c	0.g]	2.e-i\	0.g]
.	.	4d\	.
0Gl	.	0dl	.
!!LO:LB:i:g=z
!!LO:LB:i:g=z
=50||	=50||	=50||	=50||
*>B	*>B	*>B	*>B
*clefF4	*clefGv2	*clefGv2	*clefG2
*k[b-]	*k[b-]	*k[b-]	*k[]
*M2/1	*M2/1	*M2/1	*M2/1
*met(O2)	*met(O2)	*met(O2)	*met(O2)
!!section: Qui tollis
!!!OMD: Qui tollis
!	!LO:TX:Z=8:t=Canon&colon; Quare fremuerunt gentes	!	!
!	!	!	!LO:TX:Z=8:t=[Canon at the lower fifth]
[0G	0r	0r	0d
=51.	=51.	=51.	=51.
0G]	0r	0G	1d
.	.	.	[1g
=52.	=52.	=52.	=52.
0E	0r	1G	1g]
.	.	[1c	1g
=53	=53	=53	=53
[0C	0G	1c]	1g
.	.	1c	1g
=54.	=54.	=54.	=54.
0C_	1G	1c	1.g
.	[1c	1c	.
.	.	.	2e/
=55.	=55.	=55.	=55.
0C]	1c]	1.c	0e
.	1c	.	.
.	.	2A/	.
=56	=56	=56	=56
0F	1c	0A	1r
.	1c	.	[1a
=57.	=57.	=57.	=57.
1F	1.c	1r	1a]
1F	.	[1c	1a
.	2A/	.	.
=58.	=58.	=58.	=58.
1.F	0A	1c]	1a
.	.	1c	1a
2D\	.	.	.
=59	=59	=59	=59
0D	1r	1d	1.f
.	[1d	1d	.
.	.	.	2d/
=60.	=60.	=60.	=60.
0r	1d]	1.B-	0d
.	1d	.	.
.	.	2G/	.
=61.	=61.	=61.	=61.
1r	1d	0G	0r
[1G	1d	.	.
=62	=62	=62	=62
0G]	1.B-	0r	0dd
.	2G/	.	.
=63.	=63.	=63.	=63.
1B-	0G	0r	1dd
1B-	.	.	[1dd
=64.	=64.	=64.	=64.
1.B-	0r	0G	1dd]
.	.	.	1dd
2G\	.	.	.
=65	=65	=65	=65
0G	0g	1B-	1dd
.	.	1B-	1dd
=66.	=66.	=66.	=66.
0r	1g	1G	1.b
.	[1g	1G	.
.	.	.	2g/
=67.	=67.	=67.	=67.
0C	1g]	1.c	0g
.	1g	.	.
.	.	2d\	.
=68	=68	=68	=68
1C	1g	1e	1r
[1C	1g	1e	1g
=69.	=69.	=69.	=69.
1C]	1.e	0c	2g/
.	.	.	2g/
1C	.	.	1g
.	2c\	.	.
=70.	=70.	=70.	=70.
1C	0c	1r	1g
1C	.	[1c	1g
=71	=71	=71	=71
1.C	1r	0c]	1g
.	1c	.	1g
4D\	.	.	.
4E\	.	.	.
=72.	=72.	=72.	=72.
0F	2c\	1A	0a
.	2c\	.	.
.	1c	1F	.
=73.	=73.	=73.	=73.
1E	1c	1G	1g
1F	1c	2A/	1f
.	.	[2c\	.
=74	=74	=74	=74
0C	1c	2c\]	0e
.	.	2d\	.
.	1c	1e	.
=75.	=75.	=75.	=75.
0BB-	0d	1.f	0d
.	.	2g\	.
=76.	=76.	=76.	=76.
1F	1c	1a	0r
1G	1B-	2d\	.
.	.	[2g\	.
=77	=77	=77	=77
0D	0A	2g\]	0r
.	.	2f#i\	.
.	.	2f#i\	.
.	.	2e\	.
=78.	=78.	=78.	=78.
0G	0G	[0g	1r
.	.	.	[1dd
=79.	=79.	=79.	=79.
1r	0r	0g]	1dd]
1G	.	.	1b
=80	=80	=80	=80
1A	0r	1r	1cc
1B-	.	1d	1dd
=81.	=81.	=81.	=81.
[0c	1r	1e	0g
.	[1g	1c	.
=82.	=82.	=82.	=82.
0c]	1g]	0e	1r
.	1e	.	1g
=83	=83	=83	=83
1r	1f	0d	1a
1G	1g	.	1b
=84.	=84.	=84.	=84.
1A	0c	0r	1.cc
[1c	.	.	.
.	.	.	2b\
=85.	=85.	=85.	=85.
2c\]	1r	0r	2a/
2B-\	.	.	2g/
1A	1c	.	1cc
=86	=86	=86	=86
2G\	1d	0r	2b\
2F\	.	.	2a/
1c	1e	.	1g
=87.	=87.	=87.	=87.
1.d	1.f	0r	0f
2c\	2e\	.	.
=88.	=88.	=88.	=88.
2.B-\	2d\	0r	0r
.	2c\	.	.
8A\L	.	.	.
8G\J	.	.	.
1F	1f	.	.
=89	=89	=89	=89
2G\	2e\	0r	0r
1B-	2d\	.	.
.	1c	.	.
2A\	.	.	.
=90.	=90.	=90.	=90.
0B-	0B-	1d	1f
.	.	1d	1f
=91.	=91.	=91.	=91.
0r	0r	1e	1g
.	.	1f	1a
=92	=92	=92	=92
0r	0r	2e\	2g/
.	.	1d	2f/
.	.	.	1e
.	.	2c#i\	.
=93.	=93.	=93.	=93.
1G	1B-	0d	0d
1G	1B-	.	.
=94.	=94.	=94.	=94.
1E	1c	0r	0r
2D\	1d	.	.
2B-\	.	.	.
=95	=95	=95	=95
2A\	2c\	0r	0r
1G	2B-\	.	.
.	1A	.	.
2F#i\	.	.	.
=96.	=96.	=96.	=96.
0G	0G	1r	0g
.	.	[1G	.
=97.	=97.	=97.	=97.
0r	0r	2G/]	1g
.	.	2A/	.
.	.	1B-	1g
=98	=98	=98	=98
0r	0r	1c	1e
.	.	1d	1f
=99.	=99.	=99.	=99.
0r	0c	0A	1.e
.	.	.	2f/
=100.	=100.	=100.	=100.
0r	1c	0r	1g
.	1c	.	2a/
.	.	.	[2cc\
=101	=101	=101	=101
0r	1A	0r	4cc\]
.	.	.	4b\
.	.	.	1a
.	1B-	.	.
.	.	.	2g/
=102.	=102.	=102.	=102.
1.F	1.A	1c	0a
.	.	1f	.
2G\	2B-\	.	.
=103.	=103.	=103.	=103.
1A	1c	1e	0r
2B-\	2d\	2d\	.
[2A\	[2f\	[2c\	.
=104	=104	=104	=104
2A\]	4f\]	2c\]	0r
.	4e\	.	.
4G\	1d	4B-\	.
4F\	.	4A/	.
1E	.	1G	.
.	2c#i\	.	.
=105.	=105.	=105.	=105.
1.D	0d	0A	0a
2E\	.	.	.
=106.	=106.	=106.	=106.
1F	0r	1r	1a
1G	.	1d	1b-i
=107	=107	=107	=107
2F\	0r	1d	2a/
4E\	.	.	2f/
4D\	.	.	.
1C	.	1e	1g
=108.	=108.	=108.	=108.
1D	0d	2d\	0f
.	.	2f\	.
1BB-	.	2e\	.
.	.	[2d\	.
=109.	=109.	=109.	=109.
0r	1d	2d\]	0r
.	.	4c\	.
.	.	4B-\	.
.	1e-i	4c\	.
.	.	4B-\	.
.	.	4A/	.
.	.	4G/	.
=110	=110	=110	=110
1r	2d\	2F/	0r
.	2B-\	1B-	.
1F	1c	.	.
.	.	2A/	.
=111.	=111.	=111.	=111.
1G	0B-	0B-	1.d
[1B-	.	.	.
.	.	.	2e/
=112.	=112.	=112.	=112.
2B-\]	0r	0r	1f
2A\	.	.	.
2B-\	.	.	1g
[2c\	.	.	.
=113	=113	=113	=113
4c\]	0r	0r	1a
4B-\	.	.	.
4A\	.	.	.
4G\	.	.	.
1A	.	.	1f
=114.	=114.	=114.	=114.
0r	1.G	1r	1.g
.	.	1d	.
.	2A/	.	2f/
=115.	=115.	=115.	=115.
1r	1B-	1d	2d/
.	.	.	2f/
1A	1c	1c	1e
=116	=116	=116	=116
1B-	1d	1f	0d
1G	1B-	1g	.
=117.	=117.	=117.	=117.
1A	1.c	2e\	0r
.	.	2.a\	.
2F\	.	.	.
.	.	4g\	.
[2G\	2B-\	[2b-\	.
=118.	=118.	=118.	=118.
1G]	2G/	4b-\]	1r
.	.	4a\	.
.	2B-\	1g	.
1D	1A	.	1a
.	.	2f#i\	.
=119	=119	=119	=119
0G	0G	[0g	1b
.	.	.	2g/
.	.	.	[2b\
=120.	=120.	=120.	=120.
0r	0r	1g]	2b\]
.	.	.	2cc\
.	.	1f	2a/
.	.	.	[2dd\
=121.	=121.	=121.	=121.
0r	1r	0d	2dd\]
.	.	.	4cc\
.	.	.	4b\
.	1d	.	1a
=122	=122	=122	=122
1r	1e	0c	1r
[1C	2c\	.	[1cc
.	[2e\	.	.
=123.	=123.	=123.	=123.
1C]	2e\]	0r	1cc]
.	2f\	.	.
[1G	2d\	.	1b
.	[2g\	.	.
=124.	=124.	=124.	=124.
0G]	2g\]	0B-	1g
.	4f\	.	.
.	4e\	.	.
.	1d	.	1b-i
=125	=125	=125	=125
[0F	1r	0c	[0a
.	[1f	.	.
=126.	=126.	=126.	=126.
1F]	1f]	1F	1a]
1r	1e	[1c	[1g
=127.	=127.	=127.	=127.
0C	1c	2c\]	0g]
.	.	2B-\	.
.	1e	2G/	.
.	.	2c\	.
=128	=128	=128	=128
1.D	[0d	2A/	2f/
.	.	1d	2d/
.	.	.	2.f/
2E\	.	4c\	.
.	.	4B-\	4g/
=129.	=129.	=129.	=129.
2.F\	1d]	2.A/	2.a/
4G\	.	4G/	4b\
1A	[1c	1A	2cc\
.	.	.	[2a/
=130.	=130.	=130.	=130.
2F\	0c]	1r	2a/]
2G\	.	.	4g/
.	.	.	4f/
1A	.	1A	1e
=131	=131	=131	=131
2r	2B-\	1B-	1.d
1d	2G/	.	.
.	2.B-\	1A	.
2c\	.	.	2e/
.	4c\	.	.
=132.	=132.	=132.	=132.
2.B-\	2.d\	1r	2.f/
8A\L	4e\	.	4g/
8G\J	.	.	.
2F\	2f\	2r	2a/
[2G\	[2d\	2G/	[2b-i\
=133.	=133.	=133.	=133.
1G]	2d\]	2.B-\	2b-\]
.	4c\	.	4a/
.	4B-\	4c\	4g/
1D	1A	[1d	2.f#i/
.	.	.	4e/
=134	=134	=134	=134
[0Gl	[0Gl	2d\]	[0gl
.	.	1e-i	.
.	.	4d\	.
.	.	4c\	.
=135.	=135.	=135.	=135.
0G_	0G_	1.B-	0g_
.	.	2c\	.
=136.	=136.	=136.	=136.
0G]	0G]	0dl	0g]
==	==	==	==
*-	*-	*-	*-
!!!RDF**kern: l=long note in original notation
!!!RDF**kern: i=editorial accidental
!!!RDF**kern: V=start of tuplet marker
!!!RDF**kern: Z=end of tuplet marker
!!!ENC:	XXX_ADD_ENCODER_XXX
!!!END:	2012/XX/XX/
!!!EED:	Jesse Rodin
!!!EEV:	2012/06/29/
!!attribution-level@Jos: 4 (questionable)
!!!ONB:	Translated from MusicXML and edited on 2012/06/29/ by Craig Sapp
!!muse2ps: T^@{OPR}^u^@{ONM}{. }@{OTL}^C^@{COA}?\n@{SCT}^i2I150v85,85,85,150Q16
